public/icons/icon-show.svg

<svg width="81" height="76" viewBox="0 0 81 76" fill="none" xmlns="http://www.w3.org/2000/svg">
<g filter="url(#filter0_b)">
<path d="M27.0001 2.99219C13.752 2.99219 3 13.7466 3 26.9923C3 40.2427 13.752 50.9924 27.0001 50.9924C40.2721 50.9924 51.0002 40.2427 51.0002 26.9923C51.0002 13.7466 40.2721 2.99219 27.0001 2.99219V2.99219Z" fill="url(#paint0_linear)"/>
</g>
<g opacity="0.5" filter="url(#filter1_f)">
<path d="M26.9999 15.2734C20.5282 15.2734 15.2759 20.527 15.2759 26.9974C15.2759 33.4702 20.5282 38.7214 26.9999 38.7214C33.4832 38.7214 38.7239 33.4702 38.7239 26.9974C38.7239 20.527 33.4832 15.2734 26.9999 15.2734V15.2734Z" fill="#173DE3"/>
</g>
<g filter="url(#filter2_b)">
<path fill-rule="evenodd" clip-rule="evenodd" d="M79.2305 46.8988C75.426 38.7161 70.1282 32.1766 63.906 27.7073C57.6838 23.2052 50.5371 20.7734 42.9993 20.7734H42.9637C27.9237 20.7734 14.3769 30.5335 6.76802 46.8988C6.48358 47.5232 6.48358 48.2461 6.76802 48.8376C14.3769 65.2029 27.9237 74.9958 42.9637 74.9958H42.9993C58.0749 74.9958 71.6216 65.2029 79.2305 48.8376C79.515 48.2461 79.515 47.5232 79.2305 46.8988Z" fill="#556AF1" fill-opacity="0.5"/>
<path d="M79.5711 46.7436L79.5698 46.741C75.742 38.508 70.4057 31.9153 64.1251 27.4039C57.843 22.8586 50.6204 20.3992 42.9993 20.3992H42.9637C27.7458 20.3992 14.0841 30.2757 6.42869 46.741L6.42868 46.741L6.42747 46.7436C6.09977 47.463 6.09577 48.3013 6.42966 48.9975C14.085 65.461 27.7459 75.3701 42.9637 75.3701H42.9993C58.2524 75.3701 71.9134 65.4612 79.5689 48.9975C79.9028 48.3013 79.8988 47.463 79.5711 46.7436Z" stroke="url(#paint1_linear)" stroke-width="0.748441" stroke-linecap="round" stroke-linejoin="round"/>
</g>
<g filter="url(#filter3_bd)">
<path d="M53.6659 48.3521C53.6659 54.2092 48.8777 58.9975 43.0206 58.9975C37.1208 58.9975 32.3325 54.2092 32.3325 48.3521C32.3325 47.6254 32.418 46.9413 32.5463 46.2573H32.76C37.5056 46.2573 41.3533 42.4951 41.5243 37.7923C41.9945 37.7068 42.5076 37.6641 43.0206 37.6641C48.8777 37.6641 53.6659 42.4523 53.6659 48.3521Z" fill="url(#paint2_linear)"/>
<path d="M53.5911 48.3521C53.5911 54.1679 48.8363 58.9226 43.0206 58.9226C37.1619 58.9226 32.4074 54.1677 32.4074 48.3521C32.4074 47.6529 32.4872 46.9927 32.6085 46.3321H32.76C37.5258 46.3321 41.3936 42.5699 41.5967 37.8555C42.0459 37.7778 42.533 37.7389 43.0206 37.7389C48.8361 37.7389 53.5911 42.4935 53.5911 48.3521Z" stroke="url(#paint3_linear)" stroke-opacity="0.5" stroke-width="0.149688"/>
</g>
<defs>
<filter id="filter0_b" x="-6.72973" y="-6.73754" width="67.4596" height="67.4596" filterUnits="userSpaceOnUse" color-interpolation-filters="sRGB">
<feFlood flood-opacity="0" result="BackgroundImageFix"/>
<feGaussianBlur in="BackgroundImage" stdDeviation="4.86486"/>
<feComposite in2="SourceAlpha" operator="in" result="effect1_backgroundBlur"/>
<feBlend mode="normal" in="SourceGraphic" in2="effect1_backgroundBlur" result="shape"/>
</filter>
<filter id="filter1_f" x="0.307065" y="0.304624" width="53.3856" height="53.3856" filterUnits="userSpaceOnUse" color-interpolation-filters="sRGB">
<feFlood flood-opacity="0" result="BackgroundImageFix"/>
<feBlend mode="normal" in="SourceGraphic" in2="BackgroundImageFix" result="shape"/>
<feGaussianBlur stdDeviation="7.48441" result="effect1_foregroundBlur"/>
</filter>
<filter id="filter2_b" x="-5.42046" y="8.79683" width="96.8393" height="78.1725" filterUnits="userSpaceOnUse" color-interpolation-filters="sRGB">
<feFlood flood-opacity="0" result="BackgroundImageFix"/>
<feGaussianBlur in="BackgroundImage" stdDeviation="5.61331"/>
<feComposite in2="SourceAlpha" operator="in" result="effect1_backgroundBlur"/>
<feBlend mode="normal" in="SourceGraphic" in2="effect1_backgroundBlur" result="shape"/>
</filter>
<filter id="filter3_bd" x="21.1059" y="26.4375" width="43.7866" height="43.7866" filterUnits="userSpaceOnUse" color-interpolation-filters="sRGB">
<feFlood flood-opacity="0" result="BackgroundImageFix"/>
<feGaussianBlur in="BackgroundImage" stdDeviation="5.61331"/>
<feComposite in2="SourceAlpha" operator="in" result="effect1_backgroundBlur"/>
<feColorMatrix in="SourceAlpha" type="matrix" values="0 0 0 0 0 0 0 0 0 0 0 0 0 0 0 0 0 0 127 0"/>
<feOffset dx="3.7422" dy="3.7422"/>
<feGaussianBlur stdDeviation="3.7422"/>
<feColorMatrix type="matrix" values="0 0 0 0 0.333333 0 0 0 0 0.415686 0 0 0 0 0.945098 0 0 0 0.51 0"/>
<feBlend mode="normal" in2="effect1_backgroundBlur" result="effect2_dropShadow"/>
<feBlend mode="normal" in="SourceGraphic" in2="effect2_dropShadow" result="shape"/>
</filter>
<linearGradient id="paint0_linear" x1="30.5338" y1="30.2066" x2="-11.6434" y2="50.7141" gradientUnits="userSpaceOnUse">
<stop stop-color="#556AF1"/>
<stop offset="1" stop-color="#173DE3"/>
</linearGradient>
<linearGradient id="paint1_linear" x1="18.1575" y1="27.0904" x2="49.3929" y2="79.0944" gradientUnits="userSpaceOnUse">
<stop stop-color="white" stop-opacity="0.25"/>
<stop offset="1" stop-color="white" stop-opacity="0"/>
</linearGradient>
<linearGradient id="paint2_linear" x1="52.1534" y1="41.5164" x2="28.39" y2="42.2912" gradientUnits="userSpaceOnUse">
<stop stop-color="#E8F5FF"/>
<stop offset="1" stop-color="#E8F5FF" stop-opacity="0.2"/>
</linearGradient>
<linearGradient id="paint3_linear" x1="52.7519" y1="48.782" x2="32.0111" y2="49.6461" gradientUnits="userSpaceOnUse">
<stop stop-color="#E8F5FF"/>
<stop offset="1" stop-color="#E8F5FF" stop-opacity="0"/>
</linearGradient>
</defs>
</svg>

<svg viewBox="0 0 81 76" fill="none" xmlns="http://www.w3.org/2000/svg"><g filter="url(#a)"><path d="M27 2.992c-13.248 0-24 10.755-24 24 0 13.25 10.752 24 24 24 13.272 0 24-10.75 24-24 0-13.245-10.728-24-24-24z" fill="url(#b)"/></g><g opacity=".5" filter="url(#c)"><path d="M27 15.273c-6.472 0-11.724 5.254-11.724 11.724 0 6.473 5.252 11.724 11.724 11.724 6.483 0 11.724-5.25 11.724-11.724 0-6.47-5.24-11.724-11.724-11.724z" fill="#173DE3"/></g><g filter="url(#d)"><path fill-rule="evenodd" clip-rule="evenodd" d="M79.23 46.899c-3.804-8.183-9.102-14.722-15.324-19.192-6.222-4.502-13.369-6.934-20.907-6.934h-.035c-15.04 0-28.587 9.76-36.196 26.126a2.309 2.309 0 0 0 0 1.939c7.609 16.365 21.156 26.158 36.196 26.158h.035c15.076 0 28.623-9.793 36.232-26.158a2.308 2.308 0 0 0 0-1.94z" fill="#556AF1" fill-opacity=".5"/><path d="m79.571 46.744-.001-.003c-3.828-8.233-9.164-14.826-15.445-19.337C57.843 22.859 50.62 20.399 43 20.399h-.035c-15.218 0-28.88 9.877-36.535 26.342h0l-.002.003a2.683 2.683 0 0 0 .003 2.254C14.085 65.46 27.746 75.37 42.964 75.37h.035c15.253 0 28.914-9.909 36.57-26.373.334-.696.33-1.534.002-2.253z" stroke="url(#e)" stroke-width=".748" stroke-linecap="round" stroke-linejoin="round"/></g><g filter="url(#f)"><path d="M53.666 48.352c0 5.857-4.788 10.646-10.645 10.646-5.9 0-10.688-4.789-10.688-10.646 0-.727.085-1.41.213-2.095h.214c4.746 0 8.593-3.762 8.764-8.465.47-.085.984-.128 1.497-.128 5.857 0 10.645 4.788 10.645 10.688z" fill="url(#g)"/><path d="M53.591 48.352c0 5.816-4.755 10.57-10.57 10.57-5.86 0-10.614-4.754-10.614-10.57 0-.7.08-1.36.202-2.02h.151c4.766 0 8.634-3.762 8.837-8.477.449-.077.936-.116 1.424-.116 5.815 0 10.57 4.755 10.57 10.613z" stroke="url(#h)" stroke-opacity=".5" stroke-width=".15"/></g><defs><linearGradient id="b" x1="30.534" y1="30.207" x2="-11.643" y2="50.714" gradientUnits="userSpaceOnUse"><stop stop-color="#556AF1"/><stop offset="1" stop-color="#173DE3"/></linearGradient><linearGradient id="e" x1="18.157" y1="27.09" x2="49.393" y2="79.094" gradientUnits="userSpaceOnUse"><stop stop-color="#fff" stop-opacity=".25"/><stop offset="1" stop-color="#fff" stop-opacity="0"/></linearGradient><linearGradient id="g" x1="52.153" y1="41.516" x2="28.39" y2="42.291" gradientUnits="userSpaceOnUse"><stop stop-color="#E8F5FF"/><stop offset="1" stop-color="#E8F5FF" stop-opacity=".2"/></linearGradient><linearGradient id="h" x1="52.752" y1="48.782" x2="32.011" y2="49.646" gradientUnits="userSpaceOnUse"><stop stop-color="#E8F5FF"/><stop offset="1" stop-color="#E8F5FF" stop-opacity="0"/></linearGradient><filter id="a" x="-6.73" y="-6.738" width="67.46" height="67.46" filterUnits="userSpaceOnUse" color-interpolation-filters="sRGB"><feFlood flood-opacity="0" result="BackgroundImageFix"/><feGaussianBlur in="BackgroundImage" stdDeviation="4.865"/><feComposite in2="SourceAlpha" operator="in" result="effect1_backgroundBlur"/><feBlend in="SourceGraphic" in2="effect1_backgroundBlur" result="shape"/></filter><filter id="c" x=".307" y=".305" width="53.386" height="53.386" filterUnits="userSpaceOnUse" color-interpolation-filters="sRGB"><feFlood flood-opacity="0" result="BackgroundImageFix"/><feBlend in="SourceGraphic" in2="BackgroundImageFix" result="shape"/><feGaussianBlur stdDeviation="7.484" result="effect1_foregroundBlur"/></filter><filter id="d" x="-5.42" y="8.797" width="96.839" height="78.172" filterUnits="userSpaceOnUse" color-interpolation-filters="sRGB"><feFlood flood-opacity="0" result="BackgroundImageFix"/><feGaussianBlur in="BackgroundImage" stdDeviation="5.613"/><feComposite in2="SourceAlpha" operator="in" result="effect1_backgroundBlur"/><feBlend in="SourceGraphic" in2="effect1_backgroundBlur" result="shape"/></filter><filter id="f" x="21.106" y="26.438" width="43.787" height="43.787" filterUnits="userSpaceOnUse" color-interpolation-filters="sRGB"><feFlood flood-opacity="0" result="BackgroundImageFix"/><feGaussianBlur in="BackgroundImage" stdDeviation="5.613"/><feComposite in2="SourceAlpha" operator="in" result="effect1_backgroundBlur"/><feColorMatrix in="SourceAlpha" values="0 0 0 0 0 0 0 0 0 0 0 0 0 0 0 0 0 0 127 0"/><feOffset dx="3.742" dy="3.742"/><feGaussianBlur stdDeviation="3.742"/><feColorMatrix values="0 0 0 0 0.333333 0 0 0 0 0.415686 0 0 0 0 0.945098 0 0 0 0.51 0"/><feBlend in2="effect1_backgroundBlur" result="effect2_dropShadow"/><feBlend in="SourceGraphic" in2="effect2_dropShadow" result="shape"/></filter></defs></svg>
